assets/images/logo_white.svg

<svg fill="none" height="36" viewBox="0 0 135 36" width="135" xmlns="http://www.w3.org/2000/svg"><g fill="#fff"><path d="m127.835 1.63408h7.165v-1.413535h-15.827v1.413535h7.165v20.59152h1.507v-20.59152zm-23.751 0h5.409c4.291 0 7.884 1.91479 7.884 6.3158 0 4.43112-3.603 6.31582-7.884 6.31582h-5.409zm-1.497-1.413535v22.005055h1.507v-6.5364h5.509c2.445 0 3.722.4411 5.628 3.4286l2.006 3.1078h1.726l-2.345-3.579c-1.347-2.1052-2.505-3.0777-3.782-3.5188 3.503-.9123 6.037-3.2682 6.037-7.1679 0-5.06266-4.161-7.729328-9.45-7.729328h-6.836zm-15.8968 10.155355v-8.74182h11.9851v-1.413535h-13.482v22.005055h13.482v-1.4136h-11.9851v-9.0526h11.3864v-1.3835zm-12.9531-10.3759c-3.7522 0-7.255 2.29574-7.255 5.94486 0 3.01755 2.0657 4.62154 6.5664 5.21304l2.6944.3809c3.5626.4712 5.289 1.8246 5.289 4.6216 0 3.0476-2.9439 4.8722-6.3169 4.8722h-.1896c-3.9717 0-6.6063-1.7945-7.6341-4.4612l-.968.9123c1.2175 2.9875 4.2512 4.9624 8.6021 4.9624h.1896c4.1614 0 7.8238-2.4461 7.8238-6.2857 0-3.7394-2.2852-5.4737-6.6662-6.0351l-2.6944-.38094c-3.7522-.50126-5.1892-1.66416-5.1892-3.8396 0-2.92732 2.9738-4.49123 5.758-4.49123h.3793c2.6644 0 5.1992 1.10276 6.6661 3.17794l.968-.91227c-1.6266-2.35589-4.5006-3.6792-7.6341-3.6792z"/><path d="m56.7124 30.2356h-.7485v4.8722h.4391l2.5647-3.4386v3.4386h.7484v-4.8722h-.439l-2.5647 3.4386zm-1.3971 0h-3.5826v.7118h1.4071v4.1604h.7484v-4.1604h1.4171v-.7118zm-6.8358.7118h.8682c.7284 0 1.3771.3508 1.3771 1.1228 0 .802-.6487 1.1228-1.3771 1.1228h-.8682zm.8183-.7118h-1.5668v4.8722h.7485v-1.2131h.8183c1.2973 0 2.1355-.7318 2.1355-1.8245 0-1.0928-.8382-1.8346-2.1355-1.8346zm-16.3062 1.7945c0-.7419.5987-1.0827 1.3272-1.0827h.9181v2.1754h-.9181c-.7285 0-1.3272-.3208-1.3272-1.0927zm-.3194 2.3859-.449.6918h.8482l.3493-.5614c.3992-.6015.5688-.7118 1.0578-.7218h.7584v1.2832h.7485v-4.8722h-1.5967c-1.2973 0-2.0957.7318-2.0957 1.7945 0 .7719.4391 1.3133 1.1377 1.5539-.2395.1203-.4691.3609-.7585.832zm-3.6125-1.1127.6886-1.6943.6886 1.6943zm.4691-3.0677-1.9959 4.8722h.8183l.4391-1.0928h1.8861l.4391 1.0928h.8282l-1.9759-4.8722zm-4.9198.7118h.8682c.7284 0 1.3771.3508 1.3771 1.1228 0 .802-.6487 1.1228-1.3771 1.1228h-.8682zm.8083-.7118h-1.5668v4.8722h.7485v-1.2131h.8183c1.2973 0 2.1356-.7318 2.1356-1.8245 0-1.0928-.8383-1.8346-2.1356-1.8346zm-2.2853 0h-3.5825v.7118h1.417v4.1604h.7485v-4.1604h1.417zm-8.203 2.4361c0 1.3734 1.0978 2.4862 2.4649 2.4862.7185 0 1.3672-.3108 1.8262-.802l-.489-.4511c-.3492.3508-.8183.5513-1.3472.5513-.958 0-1.7164-.7418-1.7164-1.7744s.7584-1.7744 1.7164-1.7744c.5289 0 .998.2005 1.3472.5513l.489-.4511c-.459-.4912-1.1077-.802-1.8262-.802-1.3671-.01-2.4649 1.1028-2.4649 2.4662zm-.8482-2.4361h-.7485v4.8722h.7485zm-4.23123 2.5664h1.28733c.6387 0 .9181.2907.9181.802 0 .5013-.2395.792-.9181.792h-1.28733zm0-2.5664h-.74845v4.8722h2.01578c1.1477 0 1.6366-.6015 1.6366-1.5038 0-.9123-.5388-1.5037-1.6366-1.5037h-1.27731v-1.8647zm-4.45078 2.5664h1.31728c.63867 0 .91809.2907.91809.802 0 .5013-.2395.792-.91809.792h-1.31728zm2.41501-2.5664h-3.15347v4.8722h2.05574c1.14762 0 1.6366-.6015 1.6366-1.5038 0-.9123-.5289-1.5037-1.6366-1.5037h-1.30729v-1.1529h2.40502zm5.0096-15.2782 7.5443-14.736855h-6.0374l-4.1614 8.110285-4.13143-8.110285h-6.03747l7.50443 14.736855v7.2581h5.31897zm23.0921-3.7394c0 3.7995-2.5647 6.1655-5.8479 6.1655-3.2532 0-5.8179-2.3559-5.8179-6.1655 0-3.76938 2.5647-6.19545 5.8179-6.19545 3.2832.01003 5.8479 2.42607 5.8479 6.19545zm5.319 0c0-6.19545-5.0096-11.218-11.1669-11.218-6.1672 0-11.1369 5.03258-11.1369 11.218 0 6.2256 4.9797 11.2181 11.1369 11.2181 6.1573.01 11.1669-4.9925 11.1669-11.2181zm-1.8163 21.4537c0-1.0326.7585-1.7745 1.7165-1.7745.5289 0 .9979.2005 1.3472.5514l.489-.4511c-.4591-.4912-1.1077-.802-1.8262-.802-1.3672 0-2.4649 1.1128-2.4649 2.4862s1.0977 2.4862 2.4649 2.4862c.7185 0 1.3671-.3108 1.8262-.802l-.489-.4511c-.3493.3509-.8183.5514-1.3472.5514-.968-.0201-1.7165-.7519-1.7165-1.7945zm7.4845-2.4361h-3.1534v4.8722h3.1534v-.7118h-2.405v-1.3935h2.2354v-.7118h-2.2354v-1.3534h2.405zm14.6297-17.0927v-12.922355h-5.319v12.761955c0 3.7694-2.1256 4.401-3.5327 4.401-1.407 0-3.5326-.6316-3.5326-4.401v-12.761955h-5.319v12.922355c0 6.4761 4.5705 9.3032 8.8516 9.3032 4.2911 0 8.8517-2.8271 8.8517-9.3032zm5.5086 19.2782c0 .7518-.5589 1.2932-1.2574 1.2932-.7086 0-1.2574-.5414-1.2574-1.2932 0-.7519.5588-1.3033 1.2574-1.3033.6985 0 1.2574.5514 1.2574 1.3033zm-3.2832 0c0 .7518-.5589 1.2932-1.2574 1.2932-.7086 0-1.2574-.5414-1.2574-1.2932 0-.7519.5588-1.3033 1.2574-1.3033.7085 0 1.2574.5514 1.2574 1.3033zm4.0216 0c0-1.1229-.7784-2.0051-1.926-2.0051-.5788 0-1.0777.3008-1.3372.7218v-.8922h-.7485v.9023c-.2594-.4311-.7584-.7319-1.3372-.7319-1.1576 0-1.936.8923-1.936 2.0051 0 1.1228.7784 2.005 1.936 2.005.5788 0 1.0778-.2908 1.3372-.7118v1.3935h.7485v-1.3935c.2595.421.7584.7118 1.3372.7118 1.1377 0 1.926-.8822 1.926-2.005zm3.7722 2.6867h.7484v-4.8722h-.439l-2.5647 3.4386v-3.4386h-.7485v4.8722h.4391l2.5647-3.4386zm4.0416-2.4862c.1697-.0903.3293-.2507.6088-.6617l1.0977-1.7143h-.8483l-.938 1.4837c-.2695.411-.3892.5614-.7984.5614h-.5588v-2.0351h-.7484v4.8722h.7484v-2.1052h.6187c.4191 0 .5289.1403.7984.5614l.9979 1.5538h.8482l-1.1476-1.7944c-.3093-.4913-.469-.6617-.6786-.7218zm4.9797.6817h-1.3672l.6886-1.6943zm.6886 1.8045h.8183l-1.9759-4.8722h-.4391l-1.9959 4.8722h.8283l.4391-1.0928h1.8861zm5.0694.8922h.7485v-1.604h-.6387v-4.1604h-.7484v4.1604h-2.2055v-4.1604h-.7484v4.8722h3.5925zm4.3909-.8922h.7485v-4.8722h-.4391l-2.5647 3.4386v-3.4386h-.7484v4.8722h.4391l2.5646-3.4386zm4.4209-1.985h-.9181c-.7285 0-1.3273-.3308-1.3273-1.0927 0-.7419.5988-1.0827 1.3273-1.0827h.9181zm0 1.985h.7484v-4.8722h-1.5967c-1.2973 0-2.0956.7318-2.0956 1.7945 0 .7719.4391 1.3133 1.1376 1.5539-.2395.1203-.459.3609-.7584.822l-.4491.6917h.8483l.3493-.5614c.3891-.6015.5688-.7117 1.0578-.7218h.7584zm5.4583-4.1604h1.417v-.7118h-3.5821v.7118h1.417v4.1604h.7481zm5.908 1.7243c0 1.0326-.758 1.7744-1.726 1.7744-.958 0-1.717-.7418-1.717-1.7744s.759-1.7745 1.717-1.7745c.968 0 1.726.7419 1.726 1.7745zm.749 0c0-1.3735-1.108-2.4862-2.475-2.4862s-2.465 1.1127-2.465 2.4862c0 1.3734 1.098 2.4862 2.465 2.4862s2.475-1.1128 2.475-2.4862zm3.802.9925c0 .411-.22.7418-.879.7418h-1.317v-1.4837h1.317c.619-.01.879.3208.879.7419zm-.22-2.0552c0 .3208-.16.6617-.838.6617h-1.138v-1.3233h1.138c.718 0 .838.3508.838.6616zm.02.9524c.439-.1604.689-.5313.689-1.0526s-.24-1.2732-1.627-1.2732h-1.816v4.8722h1.916c1.307 0 1.746-.6015 1.746-1.3735 0-.6015-.339-1.0526-.908-1.1729zm4.072.7419h-1.368l.689-1.6943zm.688 1.8045h.828l-1.975-4.8722h-.439l-1.996 4.8722h.828l.439-1.0928h1.886zm4.421-3.0376c0 .802-.649 1.1228-1.377 1.1228h-.868v-2.2456h.868c.718 0 1.377.3508 1.377 1.1228zm.699 0c0-1.0928-.839-1.8246-2.136-1.8246h-1.567v4.8722h.749v-1.213h.818c1.297-.0101 2.136-.7319 2.136-1.8346zm4.72.6015c0 1.0326-.759 1.7744-1.727 1.7744-.958 0-1.716-.7418-1.716-1.7744s.758-1.7745 1.716-1.7745c.968 0 1.727.7419 1.727 1.7745zm.748 0c0-1.3735-1.107-2.4862-2.475-2.4862-1.367 0-2.464 1.1127-2.464 2.4862 0 1.3734 1.097 2.4862 2.464 2.4862 1.368 0 2.475-1.1128 2.475-2.4862zm3.802.9925c0 .411-.219.7418-.878.7418h-1.327v-1.4837h1.327c.629-.01.878.3208.878.7419zm-.219-2.0552c0 .3208-.16.6617-.838.6617h-1.148v-1.3233h1.148c.718 0 .838.3508.838.6616zm.708-.1002c0-.5213-.239-1.2732-1.626-1.2732h-1.817v4.8722h1.917c1.307 0 1.746-.6015 1.746-1.3735 0-.6015-.339-1.0626-.918-1.1729.449-.1604.698-.5313.698-1.0526z"/></g></svg>

<svg width="135" height="36" viewBox="0 0 135 36" fill="none" xmlns="http://www.w3.org/2000/svg">
<path d="M127.835 1.63408H135V0.220545H119.173V1.63408H126.338V22.2256H127.845V1.63408H127.835ZM104.084 1.63408H109.493C113.784 1.63408 117.377 3.54887 117.377 7.94988C117.377 12.381 113.774 14.2657 109.493 14.2657H104.084V1.63408ZM102.587 0.220545V22.2256H104.094V15.6892H109.603C112.048 15.6892 113.325 16.1303 115.231 19.1178L117.237 22.2256H118.963L116.618 18.6466C115.271 16.5414 114.113 15.5689 112.836 15.1278C116.339 14.2155 118.873 11.8596 118.873 7.9599C118.873 2.89724 114.712 0.230572 109.423 0.230572H102.587V0.220545ZM86.6902 10.3759V1.63408H98.6753V0.220545H85.1933V22.2256H98.6753V20.812H86.6902V11.7594H98.0766V10.3759H86.6902ZM73.7371 0C69.9849 0 66.4821 2.29574 66.4821 5.94486C66.4821 8.96241 68.5478 10.5664 73.0485 11.1579L75.7429 11.5388C79.3055 12.01 81.0319 13.3634 81.0319 16.1604C81.0319 19.208 78.088 21.0326 74.715 21.0326H74.5254C70.5537 21.0326 67.9191 19.2381 66.8913 16.5714L65.9233 17.4837C67.1408 20.4712 70.1745 22.4461 74.5254 22.4461H74.715C78.8764 22.4461 82.5388 20 82.5388 16.1604C82.5388 12.421 80.2536 10.6867 75.8726 10.1253L73.1782 9.74436C69.426 9.2431 67.989 8.0802 67.989 5.90476C67.989 2.97744 70.9628 1.41353 73.747 1.41353H74.1263C76.7907 1.41353 79.3255 2.51629 80.7924 4.59147L81.7604 3.6792C80.1338 1.32331 77.2598 0 74.1263 0H73.7371Z" fill="white"/>
<path d="M56.7124 30.2356H55.9639V35.1078H56.403L58.9677 31.6692V35.1078H59.7161V30.2356H59.2771L56.7124 33.6742V30.2356ZM55.3153 30.2356H51.7327V30.9474H53.1398V35.1078H53.8882V30.9474H55.3053V30.2356H55.3153ZM48.4795 30.9474H49.3477C50.0761 30.9474 50.7248 31.2982 50.7248 32.0702C50.7248 32.8722 50.0761 33.193 49.3477 33.193H48.4795V30.9474ZM49.2978 30.2356H47.731V35.1078H48.4795V33.8947H49.2978C50.5951 33.8947 51.4333 33.1629 51.4333 32.0702C51.4333 30.9774 50.5951 30.2356 49.2978 30.2356ZM32.9916 32.0301C32.9916 31.2882 33.5903 30.9474 34.3188 30.9474H35.2369V33.1228H34.3188C33.5903 33.1228 32.9916 32.802 32.9916 32.0301ZM32.6722 34.416L32.2232 35.1078H33.0714L33.4207 34.5464C33.8199 33.9449 33.9895 33.8346 34.4785 33.8246H35.2369V35.1078H35.9854V30.2356H34.3887C33.0914 30.2356 32.293 30.9674 32.293 32.0301C32.293 32.802 32.7321 33.3434 33.4307 33.584C33.1912 33.7043 32.9616 33.9449 32.6722 34.416ZM29.0597 33.3033L29.7483 31.609L30.4369 33.3033H29.0597ZM29.5288 30.2356L27.5329 35.1078H28.3512L28.7903 34.015H30.6764L31.1155 35.1078H31.9437L29.9678 30.2356H29.5288ZM24.609 30.9474H25.4772C26.2056 30.9474 26.8543 31.2982 26.8543 32.0702C26.8543 32.8722 26.2056 33.193 25.4772 33.193H24.609V30.9474ZM25.4173 30.2356H23.8505V35.1078H24.599V33.8947H25.4173C26.7146 33.8947 27.5529 33.1629 27.5529 32.0702C27.5529 30.9774 26.7146 30.2356 25.4173 30.2356ZM23.132 30.2356H19.5495V30.9474H20.9665V35.1078H21.715V30.9474H23.132V30.2356ZM14.929 32.6717C14.929 34.0451 16.0268 35.1579 17.3939 35.1579C18.1124 35.1579 18.7611 34.8471 19.2201 34.3559L18.7311 33.9048C18.3819 34.2556 17.9128 34.4561 17.3839 34.4561C16.4259 34.4561 15.6675 33.7143 15.6675 32.6817C15.6675 31.6491 16.4259 30.9073 17.3839 30.9073C17.9128 30.9073 18.3819 31.1078 18.7311 31.4586L19.2201 31.0075C18.7611 30.5163 18.1124 30.2055 17.3939 30.2055C16.0268 30.1955 14.929 31.3083 14.929 32.6717ZM14.0808 30.2356H13.3323V35.1078H14.0808V30.2356ZM9.84957 32.802H11.1369C11.7756 32.802 12.055 33.0927 12.055 33.604C12.055 34.1053 11.8155 34.396 11.1369 34.396H9.84957V32.802ZM9.84957 30.2356H9.10112V35.1078H11.1169C12.2646 35.1078 12.7535 34.5063 12.7535 33.604C12.7535 32.6917 12.2147 32.1003 11.1169 32.1003H9.83959V30.2356H9.84957ZM5.39879 32.802H6.71607C7.35474 32.802 7.63416 33.0927 7.63416 33.604C7.63416 34.1053 7.39466 34.396 6.71607 34.396H5.39879V32.802ZM7.8138 30.2356H4.66033V35.1078H6.71607C7.86369 35.1078 8.35267 34.5063 8.35267 33.604C8.35267 32.6917 7.82377 32.1003 6.71607 32.1003H5.40878V30.9474H7.8138V30.2356ZM12.8234 14.9574L20.3677 0.220545H14.3303L10.1689 8.33083L6.03747 0.220545H0L7.50443 14.9574V22.2155H12.8234V14.9574ZM35.9155 11.218C35.9155 15.0175 33.3508 17.3835 30.0676 17.3835C26.8144 17.3835 24.2497 15.0276 24.2497 11.218C24.2497 7.44862 26.8144 5.02255 30.0676 5.02255C33.3508 5.03258 35.9155 7.44862 35.9155 11.218ZM41.2345 11.218C41.2345 5.02255 36.2249 0 30.0676 0C23.9004 0 18.9307 5.03258 18.9307 11.218C18.9307 17.4436 23.9104 22.4361 30.0676 22.4361C36.2249 22.4461 41.2345 17.4436 41.2345 11.218ZM39.4182 32.6717C39.4182 31.6391 40.1767 30.8972 41.1347 30.8972C41.6636 30.8972 42.1326 31.0977 42.4819 31.4486L42.9709 30.9975C42.5118 30.5063 41.8632 30.1955 41.1447 30.1955C39.7775 30.1955 38.6798 31.3083 38.6798 32.6817C38.6798 34.0551 39.7775 35.1679 41.1447 35.1679C41.8632 35.1679 42.5118 34.8571 42.9709 34.3659L42.4819 33.9148C42.1326 34.2657 41.6636 34.4662 41.1347 34.4662C40.1667 34.4461 39.4182 33.7143 39.4182 32.6717ZM46.9027 30.2356H43.7493V35.1078H46.9027V34.396H44.4977V33.0025H46.7331V32.2907H44.4977V30.9373H46.9027V30.2356ZM61.5324 13.1429V0.220545H56.2134V12.9825C56.2134 16.7519 54.0878 17.3835 52.6807 17.3835C51.2737 17.3835 49.1481 16.7519 49.1481 12.9825V0.220545H43.8291V13.1429C43.8291 19.619 48.3996 22.4461 52.6807 22.4461C56.9718 22.4461 61.5324 19.619 61.5324 13.1429ZM67.041 32.4211C67.041 33.1729 66.4821 33.7143 65.7836 33.7143C65.075 33.7143 64.5262 33.1729 64.5262 32.4211C64.5262 31.6692 65.085 31.1178 65.7836 31.1178C66.4821 31.1178 67.041 31.6692 67.041 32.4211ZM63.7578 32.4211C63.7578 33.1729 63.1989 33.7143 62.5004 33.7143C61.7918 33.7143 61.243 33.1729 61.243 32.4211C61.243 31.6692 61.8018 31.1178 62.5004 31.1178C63.2089 31.1178 63.7578 31.6692 63.7578 32.4211ZM67.7794 32.4211C67.7794 31.2982 67.001 30.416 65.8534 30.416C65.2746 30.416 64.7757 30.7168 64.5162 31.1378V30.2456H63.7677V31.1479C63.5083 30.7168 63.0093 30.416 62.4305 30.416C61.2729 30.416 60.4945 31.3083 60.4945 32.4211C60.4945 33.5439 61.2729 34.4261 62.4305 34.4261C63.0093 34.4261 63.5083 34.1353 63.7677 33.7143V35.1078H64.5162V33.7143C64.7757 34.1353 65.2746 34.4261 65.8534 34.4261C66.9911 34.4261 67.7794 33.5439 67.7794 32.4211ZM71.5516 35.1078H72.3V30.2356H71.861L69.2963 33.6742V30.2356H68.5478V35.1078H68.9869L71.5516 31.6692V35.1078ZM75.5932 32.6216C75.7629 32.5313 75.9225 32.3709 76.202 31.9599L77.2997 30.2456H76.4514L75.5134 31.7293C75.2439 32.1403 75.1242 32.2907 74.715 32.2907H74.1562V30.2556H73.4078V35.1278H74.1562V33.0226H74.7749C75.194 33.0226 75.3038 33.1629 75.5733 33.584L76.5712 35.1378H77.4194L76.2718 33.3434C75.9625 32.8521 75.8028 32.6817 75.5932 32.6216ZM80.5729 33.3033H79.2057L79.8943 31.609L80.5729 33.3033ZM81.2615 35.1078H82.0798L80.1039 30.2356H79.6648L77.6689 35.1078H78.4972L78.9363 34.015H80.8224L81.2615 35.1078ZM86.3309 36H87.0794V34.396H86.4407V30.2356H85.6923V34.396H83.4868V30.2356H82.7384V35.1078H86.3309V36ZM90.7218 35.1078H91.4703V30.2356H91.0312L88.4665 33.6742V30.2356H87.7181V35.1078H88.1572L90.7218 31.6692V35.1078ZM95.1427 33.1228H94.2246C93.4961 33.1228 92.8973 32.792 92.8973 32.0301C92.8973 31.2882 93.4961 30.9474 94.2246 30.9474H95.1427V33.1228ZM95.1427 35.1078H95.8911V30.2356H94.2944C92.9971 30.2356 92.1988 30.9674 92.1988 32.0301C92.1988 32.802 92.6379 33.3434 93.3364 33.584C93.0969 33.7043 92.8774 33.9449 92.578 34.406L92.1289 35.0977H92.9772L93.3265 34.5363C93.7156 33.9348 93.8953 33.8246 94.3843 33.8145H95.1427V35.1078ZM100.601 30.9474H102.018V30.2356H98.4359V30.9474H99.8529V35.1078H100.601V30.9474ZM106.509 32.6717C106.509 33.7043 105.751 34.4461 104.783 34.4461C103.825 34.4461 103.066 33.7043 103.066 32.6717C103.066 31.6391 103.825 30.8972 104.783 30.8972C105.751 30.8972 106.509 31.6391 106.509 32.6717ZM107.258 32.6717C107.258 31.2982 106.15 30.1855 104.783 30.1855C103.416 30.1855 102.318 31.2982 102.318 32.6717C102.318 34.0451 103.416 35.1579 104.783 35.1579C106.15 35.1579 107.258 34.0451 107.258 32.6717ZM111.06 33.6642C111.06 34.0752 110.84 34.406 110.181 34.406H108.864V32.9223H110.181C110.8 32.9123 111.06 33.2431 111.06 33.6642ZM110.84 31.609C110.84 31.9298 110.68 32.2707 110.002 32.2707H108.864V30.9474H110.002C110.72 30.9474 110.84 31.2982 110.84 31.609ZM110.86 32.5614C111.299 32.401 111.549 32.0301 111.549 31.5088C111.549 30.9875 111.309 30.2356 109.922 30.2356H108.106V35.1078H110.022C111.329 35.1078 111.768 34.5063 111.768 33.7343C111.768 33.1328 111.429 32.6817 110.86 32.5614ZM114.932 33.3033H113.564L114.253 31.609L114.932 33.3033ZM115.62 35.1078H116.448L114.473 30.2356H114.034L112.038 35.1078H112.866L113.305 34.015H115.191L115.62 35.1078ZM120.041 32.0702C120.041 32.8722 119.392 33.193 118.664 33.193H117.796V30.9474H118.664C119.382 30.9474 120.041 31.2982 120.041 32.0702ZM120.74 32.0702C120.74 30.9774 119.901 30.2456 118.604 30.2456H117.037V35.1178H117.786V33.9048H118.604C119.901 33.8947 120.74 33.1729 120.74 32.0702ZM125.46 32.6717C125.46 33.7043 124.701 34.4461 123.733 34.4461C122.775 34.4461 122.017 33.7043 122.017 32.6717C122.017 31.6391 122.775 30.8972 123.733 30.8972C124.701 30.8972 125.46 31.6391 125.46 32.6717ZM126.208 32.6717C126.208 31.2982 125.101 30.1855 123.733 30.1855C122.366 30.1855 121.269 31.2982 121.269 32.6717C121.269 34.0451 122.366 35.1579 123.733 35.1579C125.101 35.1579 126.208 34.0451 126.208 32.6717ZM130.01 33.6642C130.01 34.0752 129.791 34.406 129.132 34.406H127.805V32.9223H129.132C129.761 32.9123 130.01 33.2431 130.01 33.6642ZM129.791 31.609C129.791 31.9298 129.631 32.2707 128.953 32.2707H127.805V30.9474H128.953C129.671 30.9474 129.791 31.2982 129.791 31.609ZM130.499 31.5088C130.499 30.9875 130.26 30.2356 128.873 30.2356H127.056V35.1078H128.973C130.28 35.1078 130.719 34.5063 130.719 33.7343C130.719 33.1328 130.38 32.6717 129.801 32.5614C130.25 32.401 130.499 32.0301 130.499 31.5088Z" fill="white"/>
</svg>
